X: 3846
T: Black Lough, The
R: jig
M: 6/8
K: Gmajor
A|:BcA G2D|GBd gdc|BGG dGG|cAG FGA|
BcA G2D|GBd gag|fdd fed|1 cAF Gdc:|2 cAF G2D||
|:GBd g2e|fed cAF|GFG BdB|cAG FGA|
GBd g2e|fed faf|g2e fed|1 cAF G2D:|2 cAF Gdc||
|:BAB GBd|gdB cdc|BAB GBd|DFA cBA|
BAB Gba|gdB cdc|B2G BdB|1 cAF Gdc:|2 cAF GBd||
|:gfg def|gdB cdc|BGG DGG|Eag fed|
g2e fga|gfg bag|fdd fed|1 cAF GBd:|2 cAF G2||

